!!!OTL: Woza
!!!XEN: Come
!!!CNT: African -- sub-Saharan -- Zulu
!!!AMT: irregular
**kern
*k[]
*M4/4
*MM76
=1
4.c
8G
4r
8r
(16e
16d)
=2
4.c
8A
2r
=3
4.g
8g
8g
8a
8a
8e
=4
4.g
8d
2r
=5
4.b-
8g
2r
=6
8g
8a
8c
8c
2d
=7
4.c
8G
8G
8A
8G
8F
=8
4.G
8G
2r
=9
4g
8g
8g
8g
8a
8a
8e
=10
4.g
8d
2r
=11
8e
8a
8a
8a
8a
8g
8g
8g
=12
4.f
16e
16d
2B
=13
4.b-
8g
2r
=14
8g
8a
8c
8c
2d
=15
4.g
8g
8g
8a
8g
8f
=16
4.g
8g
2r
!! Repeat next section.
=17
8a
8cc
8cc
8a
8a
8f
8f
*M5/4
=18
4d
6c
6e
6g
6cc
6g
6e
*M4/4
=19
6a
6f
6d
6f
6d
6B
=20
4c
4r
4g
4r
!! Repeating.
=21
8a
8cc
8cc
8a
8a
8f
8f
*M5/4
=22
4d
6c
6e
6g
6cc
6g
6e
*M4/4
=23
6a
6f
6d
6f
6d
6B
=24
4c
4r
4g
4r
!! Repeat the next section.
=25
4.cc
8g
4r
8r
(16ee
16dd)
=26
4.cc
8a
2r
=27
4.dd
8g
8g
8a
8a
8dd
=28
4.dd
8g
2r
=29
4.b-
8g
2r
=30
8g
8a
8c
8c
2d
=31
6g
6e
6c
6f
6d
6B
=32
4.c
8c
2r
!! Repeating.
=33
4.cc
8g
4r
8r
(16ee
16dd)
=34
4.cc
8a
2r
=35
4.dd
8g
8g
8a
8a
8dd
=36
4.dd
8g
2r
=37
4.b-
8g
2r
=38
8g
8a
8c
8c
2d
=39
6g
6e
6c
6f
6d
6B
=40
4.c
8c
2r
!! Continuing.
=41
2.g
8r
16f
16f
=42
4.g
8e
4r
8r
8e
=43
2.g
8r
8f
=44
1g;
==
*-
!!!OPR: Miriam Makeba, "The World of African Song"
!!!PPP: Chicago
!!!PPR: Quadrangle Press (12 East Delaware Place)
!!!PDT: 1971///
!!!PPG: 69
!!!ENC: David Huron
!!!EMD: 1998/9/29/ Paul von Hippel updated this file in the following ways:
!!!EMD:  (1) changed the representation of slurs from curly braces to parentheses 
!!!EMD:  (2) changed freeform comments into reference records and tandem interpretations
!!!EMD:  (3) changed final barline from triple (===) to double (==)
!!!EMD:  (4) added key signature from printed source
!!!EEV: Version 2.0
